X:46
T:Flute Hornpipe. WM.046
M:4/4
L:1/8
Q:1/2=90
S:Wm.Mittell’s MS, New Romney,Kent,1799
R:.Hornpipe
O:England
A:Kent
N:For Flute,anyway
Z:vmp.Chris Partington
K:G
G4d4|dBAG cAGF|G2B4d2|cecA FAFD|G4B4|!
dBAG cAGF|Ggfe{e}d2cB|cAGFG4:|!
|:B4d4|cAGF BGFE|DEFG ABcd|efd^c dABc|!
d4g4|afed ged^c|d2(ef) ged^c|d6″*”(Bc)|!
d4=f4|ecGE CEGc|e4g4|fdAF DFAd|!
f2a2fedf|gdcB BAGF|Ggfe {e}d2(cB)|cAGFG4:|
W: two quavers in bar 16 are semi quavers in MS

